Surfn-Breeze-Dark/16x16/mimetypes/text-xml.svg

<?xml version="1.0" encoding="UTF-8" standalone="no"?>
<svg xmlns="http://www.w3.org/2000/svg" width="16" height="16" version="1.1" viewBox="0 0 16 16">
 <g transform="translate(0,-1036.3622)">
  <path style="fill:#f27935;fill-opacity:1" d="M 9.0898438 2 L 5.9433594 13.740234 L 6.9101562 14 L 10.056641 2.2597656 L 9.0898438 2 z M 5.2851562 4 L 2.3242188 7.1445312 L 2 7.4921875 L 2.3242188 7.8378906 L 5.2675781 11 L 5.9824219 10.304688 L 3.3613281 7.4921875 L 6 4.6953125 L 5.2851562 4 z M 10.714844 4 L 10 4.6953125 L 12.638672 7.4921875 L 10.017578 10.304688 L 10.732422 11 L 13.675781 7.8378906 L 14 7.4921875 L 13.675781 7.1445312 L 10.714844 4 z" transform="translate(0,1036.3622)"/>
 </g>
</svg>

<svg width="16" xmlns="http://www.w3.org/2000/svg" height="16" viewBox="0 0 16 16">
 <path fill="#cf74e0" color="#000000" stroke-width=".1" d="m9.09 2l-3.146 11.74.967.26 3.146-11.74zm-3.805 2l-2.961 3.145-.324.348.324.346 2.943 3.162.715-.695-2.621-2.813 2.639-2.797zm5.43 0l-.715.695 2.639 2.797-2.621 2.813.715.695 2.943-3.162.324-.346-.324-.348z"/>
</svg>
